www/assets/icons/rotate_90_degrees_ccw.svg

<svg width="24" height="24" viewBox="0 0 24 24" xmlns="http://www.w3.org/2000/svg" fill='currentColor'><path d="M7.90999 7.02988L1.42999 13.5199L7.91999 19.9999L14.41 13.5199L7.90999 7.02988ZM4.25999 13.5199L7.91999 9.85988L11.57 13.5199L7.90999 17.1799L4.25999 13.5199ZM19.93 7.25988C18.18 5.49988 15.87 4.61988 13.57 4.61988V1.37988L9.32999 5.61988L13.57 9.85988V6.61988C15.36 6.61988 17.15 7.29988 18.52 8.66988C21.25 11.3999 21.25 15.8399 18.52 18.5699C17.15 19.9399 15.36 20.6199 13.57 20.6199C12.6 20.6199 11.63 20.4099 10.73 20.0099L9.23999 21.4999C10.59 22.2399 12.08 22.6199 13.57 22.6199C15.87 22.6199 18.18 21.7399 19.93 19.9799C23.45 16.4699 23.45 10.7699 19.93 7.25988Z"/></svg>

<svg xmlns="http://www.w3.org/2000/svg" width="24" height="24" viewBox="0 0 24 24" fill='currentColor'><path d="m7.91 7.03-6.48 6.49L7.92 20l6.49-6.48zm-3.65 6.49 3.66-3.66 3.65 3.66-3.66 3.66zm15.67-6.26a8.95 8.95 0 0 0-6.36-2.64V1.38L9.33 5.62l4.24 4.24V6.62c1.79 0 3.58.68 4.95 2.05a7.007 7.007 0 0 1 0 9.9 6.97 6.97 0 0 1-7.79 1.44L9.24 21.5c1.35.74 2.84 1.12 4.33 1.12 2.3 0 4.61-.88 6.36-2.64a8.98 8.98 0 0 0 0-12.72"/></svg>
